X: 619
%
U:~=!turn!
T: Victoria Hornpipe
C:
O:Scotland
B:Keith Norman MacDonald : "The Skye collection of the best reels & strathspeys extant" : 1887
Z:Ralph Palmer
R:Hornpipe
M:C
L:1/8
K:A
e2 |\
a2 e2 dcBA | a2 e2 dcBA | (dc)BA =G2 AB | =g2 d2 d2 e^g |\
a2 e2 dcBA | a2 e2 dcBA | dcBA ^GB ed | c2 A2 A2 :|
|: (cB) |\
(AB)cd e2 e=g | f2 df e2 ce | (dc)BA =G2 AB | =g2 d2 d2 (cB) |\
(AB)cd e2 e=g | f2 df e2 ce | dcBA ^GBed | c2 A2 A2 :|


